X: 4
T: Flatbush
R: waltz
M: 3/4
L: 1/8
K: Gmin
d3 e dc|B2 G2 G2|d3 g dB |c3e dc|Bc de fd|cG c2 dc|B3 c AB |G6:||
b4 ag  |a2 d2 d2|g2 f2 e2|d6    |e4 dc   |d2 g2 a2|b3 a bc'|a6  |
d'4 c'b|a2 d2 d2|g2 f2 e2|d6 cd |e4 dc   |d2 B2 G2|BA Bc AB|G6 ||


Tune 3809	Setting 16746

